img/svg/oppfoelgingsdialog_tiltak_slett.svg

<?xml version="1.0" encoding="UTF-8" standalone="no"?>
<svg width="24px" height="24px" viewBox="0 0 24 24" version="1.1" xmlns="http://www.w3.org/2000/svg" xmlns:xlink="http://www.w3.org/1999/xlink">
    <!-- Generator: Sketch 47.1 (45422) - http://www.bohemiancoding.com/sketch -->
    <title>bin 1 copy</title>
    <desc>Created with Sketch.</desc>
    <defs></defs>
    <g id="Vurdere-tiltak" stroke="none" stroke-width="1" fill="none" fill-rule="evenodd">
        <g id="AG_Tiltak-lagt-inn-av-sykmeldt-Copy" transform="translate(-221.000000, -1049.000000)" fill-rule="nonzero" fill="#0066C3">
            <g id="bin-1-copy" transform="translate(221.000000, 1049.000000)">
                <path d="M23.016,3 L19.516,3 L16.016,3 L16.016,0.5 C16.016,0.224 15.792,0 15.516,0 L7.516,0 C7.24,0 7.016,0.224 7.016,0.5 L7.016,3 L3.516,3 L1.016,3 C0.74,3 0.516,3.224 0.516,3.5 C0.516,3.776 0.739,4 1.016,4 L3.016,4 L3.016,23.5 C3.016,23.776 3.24,24 3.516,24 L19.516,24 C19.792,24 20.016,23.776 20.016,23.5 L20.016,4 L23.016,4 C23.292,4 23.516,3.776 23.516,3.5 C23.516,3.224 23.292,3 23.016,3 Z M8.016,1 L15.016,1 L15.016,3 L8.016,3 L8.016,1 Z M19.016,23 L4.016,23 L4.016,4 L7.516,4 L15.516,4 L19.016,4 L19.016,23 Z" id="Shape"></path>
                <path d="M7.516,6.5 C7.24,6.5 7.016,6.724 7.016,7 L7.016,19 C7.016,19.276 7.24,19.5 7.516,19.5 C7.792,19.5 8.016,19.276 8.016,19 L8.016,7 C8.016,6.724 7.792,6.5 7.516,6.5 Z" id="Shape"></path>
                <path d="M11.516,6.5 C11.24,6.5 11.016,6.724 11.016,7 L11.016,19 C11.016,19.276 11.24,19.5 11.516,19.5 C11.792,19.5 12.016,19.276 12.016,19 L12.016,7 C12.016,6.724 11.792,6.5 11.516,6.5 Z" id="Shape"></path>
                <path d="M15.016,7 L15.016,19 C15.016,19.276 15.24,19.5 15.516,19.5 C15.792,19.5 16.016,19.276 16.016,19 L16.016,7 C16.016,6.724 15.792,6.5 15.516,6.5 C15.24,6.5 15.016,6.724 15.016,7 Z" id="Shape"></path>
            </g>
        </g>
    </g>
</svg>

<svg width="24" height="24" xmlns="http://www.w3.org/2000/svg"><g fill-rule="nonzero" fill="#0066C3"><path d="M23.016 3h-7V.5a.5.5 0 0 0-.5-.5h-8a.5.5 0 0 0-.5.5V3h-6a.5.5 0 0 0 0 1h2v19.5a.5.5 0 0 0 .5.5h16a.5.5 0 0 0 .5-.5V4h3a.5.5 0 0 0 0-1zm-15-2h7v2h-7V1zm11 22h-15V4h15v19z"/><path d="M7.516 6.5a.5.5 0 0 0-.5.5v12a.5.5 0 0 0 1 0V7a.5.5 0 0 0-.5-.5zM11.516 6.5a.5.5 0 0 0-.5.5v12a.5.5 0 0 0 1 0V7a.5.5 0 0 0-.5-.5zM15.016 7v12a.5.5 0 0 0 1 0V7a.5.5 0 0 0-1 0z"/></g></svg>
